Origami/64x64/apps/signal-desktop.svg

<svg width="64" height="64" version="1.1" viewBox="0 0 64 64" xmlns="http://www.w3.org/2000/svg">
 <path d="m4.042999 29.828556a27.9995 25.999536 0 0 0 -0.042999 1.171979 27.9995 25.999536 0 0 0 9.999821 19.913645v-1.999964a27.9995 25.999536 0 0 1 -9.956822 -19.08566zm55.915002 0.343994a27.9995 25.999536 0 0 1 -27.957501 24.827557 27.9995 25.999536 0 0 1 -10.557812 -1.933965l-7.441867 5.933894v1.999964l7.441867-5.933894a27.9995 25.999536 0 0 0 10.557812 1.933965 27.9995 25.999536 0 0 0 27.9995 -25.999536 27.9995 25.999536 0 0 0 -0.042 -0.827985z" style="opacity:.2"/>
 <path d="m31.9995 4.0010353a27.9995 25.999536 0 0 0 -27.9995 25.999536 27.9995 25.999536 0 0 0 9.9998212 19.913645v10.08582l7.441867-5.933894a27.9995 25.999536 0 0 0 10.557812 1.933965 27.9995 25.999536 0 0 0 27.9995 -25.999536 27.9995 25.999536 0 0 0 -27.9995 -25.999536z" style="fill:#2090ea"/>
 <path d="m31.998047 4.0019531a27.9995 25.999536 0 0 0 -27.998047 25.998047 27.9995 25.999536 0 0 0 0.0214844 0.425781 27.9995 25.999536 0 0 1 27.976563 -25.423828h0.001953a27.9995 25.999536 0 0 1 27.976562 25.595703 27.9995 25.999536 0 0 0 0.021485 -0.597656 27.9995 25.999536 0 0 0 -27.998047 -25.998047h-0.001953z" style="fill:#ffffff;opacity:.2"/>
 <ellipse cx="32" cy="31.001" rx="19" ry="17" style="fill:none;opacity:.2;stroke-dasharray:11.9997858, 5.9998929;stroke-width:5.9998927;stroke:#000000"/>
 <ellipse cx="32" cy="30.001" rx="19" ry="17" style="fill:none;stroke-dasharray:11.9997858, 5.9998929;stroke-width:5.9998927;stroke:#ffffff"/>
</svg>

<svg xmlns="http://www.w3.org/2000/svg" width="64" height="64" version="1.1" viewBox="0 0 64 64">
 <path style="opacity:0.2" d="M 4.042999,29.828556 A 27.9995,25.999536 0 0 0 4,31.000535 27.9995,25.999536 0 0 0 13.999821,50.91418 l 0,-1.999964 A 27.9995,25.999536 0 0 1 4.042999,29.828556 Z M 59.958001,30.17255 A 27.9995,25.999536 0 0 1 32.0005,55.000107 27.9995,25.999536 0 0 1 21.442688,53.066142 l -7.441867,5.933894 0,1.999964 7.441867,-5.933894 A 27.9995,25.999536 0 0 0 32.0005,57.000071 27.9995,25.999536 0 0 0 60,31.000535 27.9995,25.999536 0 0 0 59.958,30.17255 Z"/>
 <path style="fill:#2090ea" d="M 31.9995,4.0010353 A 27.9995,25.999536 0 0 0 3.9999998,30.000571 27.9995,25.999536 0 0 0 13.999821,49.914216 l 0,10.08582 7.441867,-5.933894 A 27.9995,25.999536 0 0 0 31.9995,56.000107 27.9995,25.999536 0 0 0 59.999,30.000571 27.9995,25.999536 0 0 0 31.9995,4.0010353 Z"/>
 <path style="opacity:0.2;fill:#ffffff" d="M 31.998047 4.0019531 A 27.9995 25.999536 0 0 0 4 30 A 27.9995 25.999536 0 0 0 4.0214844 30.425781 A 27.9995 25.999536 0 0 1 31.998047 5.0019531 L 32 5.0019531 A 27.9995 25.999536 0 0 1 59.976562 30.597656 A 27.9995 25.999536 0 0 0 59.998047 30 A 27.9995 25.999536 0 0 0 32 4.0019531 L 31.998047 4.0019531 z"/>
 <ellipse style="opacity:0.2;fill:none;stroke:#000000;stroke-width:5.99989271;stroke-dasharray:11.9997858, 5.9998929" cx="32" cy="31.001" rx="19" ry="17"/>
 <ellipse style="fill:none;stroke:#ffffff;stroke-width:5.99989271;stroke-dasharray:11.9997858, 5.9998929" cx="32" cy="30.001" rx="19" ry="17"/>
</svg>
